!!!COM: Bach, Johann Sebastian
!!!OPR: Joh. Seb. Bachs vierstimmige Choralgesänge
!!!XEN: Four-part Chorales
!!!OTL: 86. Herr, wie du willst, so schick's mit mir
!!!SCT: BWV 339
!!!SCA: Thematisch-systematisches Verzeichnis der musikalischen Werke Johann Sebastian Bach: Bach-Werke-Verzeichnis (Schmieder)
!!!YOR: Bach Gesellschaft Edition xxxix
!!!ENC: Steven Rasmussen
!!!CDT: 1685/3//-1750/7/28/
!!!OCY: Deutschland
!!!YEC: Copyright (c) 1994, 2000 Center for Computer Assisted Research in the Humanities
!!!YEM: Rights to all derivative editions reserved
!!!YEN: United States of America
**kern	**silbe	**kern	**silbe	**kern	**silbe	**kern	**silbe
*I:[BASSO]	*I:[BASSO]	*I:[TENORE]	*I:[TENORE]	*I:[ALTO]	*I:[ALTO]	*I:[SOPRANO]	*I:[SOPRANO]
*>[A,A,B]	*	*>[A,A,B]	*	*>[A,A,B]	*	*>[A,A,B]	*
*>A	*	*>A	*	*>A	*	*>A	*
*clefF4	*	*clefGv2	*	*clefG2	*	*clefG2	*
*k[f#c#g#]	*	*k[f#c#g#]	*	*k[f#c#g#]	*	*k[f#c#g#]	*
*A:	*	*A:	*	*A:	*	*A:	*
*M4/4	*	*M4/4	*	*M4/4	*	*M4/4	*
=1-	=1-	=1-	=1-	=1-	=1-	=1-	=1-
4r	.	4r	.	4r	.	4r	.
4AA	.	4c#	.	4e	.	4a	Herr,al-(Werder?
4BB	.	4B	.	4d	.	4g#	wie-leininspricht:
4C#	.	4A	.	4e	.	4a	duzudemdu
=2	=2	=2	=2	=2	=2	=2	=2
4D#	.	4A	.	4f#	.	4b	willst,dirSchutzHerr
4E#	.	4G#	.	4c#	.	4b	sostehtdesmein'
8F#L	.	4A	.	4c#	.	4a	schick'smeinHÃ¶ch-Zu-
8EnJ	.	.	.	.	.	.	.
4Dn	.	8G#L	.	4f#	.	4b	mitBe--sten-flucht
.	.	8F#J	.	.	.	.	.
=3	=3	=3	=3	=3	=3	=3	=3
2C#;	.	2G#;	.	2e#;	.	2cc#;	mir-gier,istbist,
4r	.	4r	.	4r	.	4r	.
8F#L	.	4A	.	4f#	.	4dd	imlassundmein
8G#J	.	.	.	.	.	.	.
=4	=4	=4	=4	=4	=4	=4	=4
4.A	.	4A	.	8eL	.	4cc#	Le-mich,sichGott,
.	.	.	.	8c#J	.	.	.
.	.	4B	.	8d#L	.	4b	-benHerr,GottHoff-
8G#	.	.	.	8e#J	.	.	.
8F#L	.	4c#	.	4f#	.	4a	undnichttut-nung
8EJ	.	.	.	.	.	.	.
8DL	.	8BL	.	4en	.	8g#L	imver-er-und
8C#J	.	8AJ	.	.	.	8aJ	.
=5	=5	=5	=5	=5	=5	=5	=5
8DL	.	4A	.	4f#	.	2b	Ster--der--ge-Le-
8BBJ	.	.	.	.	.	.	.
4E	.	4G#	.	8eL	.	.	.
.	.	.	.	8dJ	.	.	.
2AA;	.	2E;	.	2c#;	.	2a;	-ben,-ben.-ben,-ben,)
=6:|!	=6:|!	=6:|!	=6:|!	=6:|!	=6:|!	=6:|!	=6:|!
*>B	*	*>B	*	*>B	*	*>B	*
4r	.	4r	.	4r	.	4r	.
4A	.	4c#	.	4e	.	4a	Er-(der
4A	.	8dL	.	4f#	.	8bL	-halt'du
.	.	8c#J	.	.	.	8cc#J	.
8G#L	.	8BL	.	8e#L	.	4dd	michja
8F#J	.	8AJ	.	8f#J	.	.	.
=7	=7	=7	=7	=7	=7	=7	=7
4E#	.	4G#	.	4g#	.	8cc#L	nurwirst
.	.	.	.	.	.	8bJ	.
8F#L	.	8AL	.	4c#	.	4a	iner-
8EnJ	.	8G#J	.	.	.	.	.
8DL	.	4F#	.	4.f#	.	8bL	dei--ret-
8BBJ	.	.	.	.	.	8aJ	.
4C#	.	8c#L	.	.	.	4g#	-ner-ten
.	.	8BJ	.	8e#	.	.	.
=8	=8	=8	=8	=8	=8	=8	=8
2FF#;	.	2A;	.	2c#;	.	2f#;	Huld,mich
4r	.	4r	.	4r	.	4r	.
4BB#	.	4G#	.	4d#	.	4g#	sonstvon
=9	=9	=9	=9	=9	=9	=9	=9
8C#L	.	4G#	.	(8e	.	4e	wieTeu-
8BBJ	.	.	.	4d)	.	.	.
4AA	.	4A	.	.	.	4e	du-fels
.	.	.	.	8c#	.	.	.
8AAL	.	8F#L	.	8d#L	.	4b	willst,Stri-
8GG#J	.	8G#J	.	8eJ	.	.	.
4AA#	.	8GnL	.	4e	.	4cc#	gib-cken
.	.	8F#J	.	.	.	.	.
=10	=10	=10	=10	=10	=10	=10	=10
4.BB	.	8F#L	.	8dL	.	8ddL	mirgnÃ¤-
.	.	8DJ	.	8f#J	.	8cc#J	.
.	.	4d	.	4gn	.	4b	Ge--dig-
8C#	.	.	.	.	.	.	.
2D;	.	2d;	.	(4g	.	2a;	-duld,-lich
.	.	.	.	4f#;)	.	.	.
=11	=11	=11	=11	=11	=11	=11	=11
4r	.	4r	.	4r	.	4r	.
4GG#	.	4e	dein	[4b	dein	4ee	deinund
8AAL	.	4e	Will',	8bL]	.	4cc#	Will',von
8C#J	.	.	.	16aL	.	.	.
.	.	.	.	16g#JJ	.	.	.
8F#L	.	8c#L	der	[4a	Will',	4cc#	derder
8EJ	.	16dL	.	.	.	.	.
.	.	16eJJ	.	.	.	.	.
=12	=12	=12	=12	=12	=12	=12	=12
4.D	ist	8f#L	ist	8aL]	.	(4b	istPe-
.	.	8eJ	.	16g#L	.	.	.
.	.	.	.	16f#JJ	.	.	.
.	.	4A	der	4e	der	4a)	.
8C#	.	.	.	.	.	.	.
8BBL	.	8dL	be-	4e	ist	(4g#	der-sti-
8EJ	.	8BJ	.	.	.	.	.
8C#L	der	[4A	.	4e	der	4a)	.
8AAJ	.	.	.	.	.	.	.
=13	=13	=13	=13	=13	=13	=13	=13
4E	be-	4A]	.	4.e	be-	2b	be--len-
4EE	.	4G#	.	.	.	.	.
.	.	.	.	8d	.	.	.
2AA;	-ste.	2E;	-ste.	2c#;	-ste.	2a;	-ste.-ze.)
==|!	==|!	==|!	==|!	==|!	==|!	==|!	==|!
!!!RNB1: * Alternative text, "Wer in dem Schutz des HÃ¶chsten ist ... der du ja wirst
!!!RNB2:   erretten mich"
*-	*-	*-	*-	*-	*-	*-	*-
!!!RWG: Key is interpreted using the Humdrum key tool.
!!!URL-pdf: https://s9.imslp.org/files/imglnks/usimg/6/6b/IMSLP24489-PMLP09471-CCARH_Bach_Chorales.pdf#page=60 Musedata edition
!!!URL-pdf: https://s9.imslp.org/files/imglnks/usimg/7/7a/IMSLP04155-Bach_-_BGA_253-438.pdf#page=46 	Bach-Gesellschaft Ausgabe, Band 39 (pp.175-276) Leipzig: Breitkopf und Härtel, 1892. Plate B.W. XXXIX.
!!!END: 1994/06/10
!!!EMD: Converted from MuseData to Humdrum Dec 19, 2000, by Andreas Kornstaedt using muse2kern.
!!!EED: Craig Stuart Sapp
!!!EEV: 2024/03/31
!!!ONB: Some non-unicode characters
!!!filter-keyboard: satb2gs
